public/request-illustration.svg

<svg width="200" height="169" viewBox="0 0 200 169" fill="none" xmlns="http://www.w3.org/2000/svg">
<g clip-path="url(#clip0_2293_1630)">
<path opacity="0.1" d="M199.083 115.115C193.621 87.569 161.618 65.5547 155.375 36.8484C144.031 0.32821 106.638 -5.44561 82.3391 10.4152C43.838 35.5469 84.9106 41.7832 9.42226 101.243C-9.21776 115.925 -3.27818 180.734 55.3614 165.862C86.9188 157.858 96.5124 156.734 110.707 155.416C146.485 152.093 208.253 161.354 199.083 115.115Z" fill="black"/>
<path d="M162.809 161.984L40.2757 162.085C35.4124 162.089 32.1234 158.807 32.1191 153.945L32.0449 77.2233L170.878 77.1078L170.952 153.829C170.954 158.691 167.671 161.98 162.809 161.984Z" fill="white"/>
<path d="M40.2634 162.413C37.7924 162.413 35.6755 161.604 34.1407 160.072C32.6058 158.539 31.7904 156.419 31.7881 153.944L31.7136 76.8944H32.0419L171.203 76.7786L171.278 153.828C171.282 158.899 167.878 162.309 162.809 162.313L40.2756 162.414L40.2634 162.413ZM32.3708 77.5503L32.4446 153.943C32.4466 156.241 33.1933 158.199 34.6041 159.607C36.0149 161.016 37.97 161.757 40.2634 161.757H40.2726L162.806 161.656C167.484 161.652 170.624 158.505 170.618 153.828L170.544 77.4354L32.3708 77.5503Z" fill="black"/>
<path d="M170.962 76.5652L104.755 26.3228C103.793 25.5964 102.621 25.2038 101.415 25.2048C100.21 25.2058 99.0385 25.6004 98.0781 26.3284L31.9549 76.6808C31.8695 76.7458 31.8021 76.8316 31.7592 76.93C31.7164 77.0285 31.6994 77.1363 31.71 77.2431C31.7205 77.3499 31.7583 77.4523 31.8196 77.5404C31.8809 77.6286 31.9638 77.6995 32.0603 77.7466L94.9053 108.386C96.739 109.309 98.7561 109.81 100.808 109.851C102.861 109.892 104.897 109.473 106.766 108.625C106.831 108.595 106.897 108.564 106.963 108.534L170.857 77.6333C170.954 77.5866 171.037 77.5157 171.099 77.4274C171.161 77.3392 171.199 77.2366 171.209 77.1294C171.22 77.0223 171.203 76.9142 171.16 76.8155C171.117 76.7168 171.049 76.6309 170.963 76.5659L170.962 76.5652Z" fill="black"/>
<path d="M129.534 53.386C131.88 63.7769 135.093 70.4619 133.493 74.3011C132.652 76.3195 130.927 78.0103 128.07 78.0103C123.617 78.0103 123.617 72.7583 119.163 72.7583C114.709 72.7583 114.71 78.0103 110.257 78.0103C105.804 78.0103 105.805 72.7583 101.352 72.7583C96.8994 72.7583 96.8995 78.0103 92.4468 78.0103C87.9942 78.0103 87.9942 72.7583 83.5415 72.7583C79.0889 72.7583 79.0896 78.0103 74.6372 78.0103C71.9939 78.0103 70.4997 76.4534 69.5521 74.6546C67.2747 70.3323 72.5824 60.8211 74.6372 52.4344C76.908 43.1665 76.7167 31.6237 77.0213 24.6607C77.6092 11.2358 87.916 0.328247 101.355 0.328247C114.794 0.328247 124.71 11.2588 125.689 24.662C126.217 31.888 127.386 43.8741 129.534 53.386Z" fill="white"/>
<path d="M128.07 78.3398C125.691 78.3398 124.509 76.946 123.366 75.5979C122.271 74.307 121.238 73.0879 119.163 73.0879C117.088 73.0879 116.055 74.307 114.961 75.5979C113.818 76.9457 112.636 78.3398 110.258 78.3398C107.88 78.3398 106.698 76.946 105.555 75.5979C104.461 74.307 103.427 73.0879 101.353 73.0879C99.2798 73.0879 98.2455 74.307 97.1518 75.5979C96.0089 76.9457 94.8272 78.3398 92.4487 78.3398C90.0703 78.3398 88.8886 76.946 87.7456 75.5979C86.6513 74.307 85.6176 73.0879 83.5441 73.0879C81.4706 73.0879 80.4366 74.307 79.3426 75.5979C78.1996 76.9457 77.0183 78.3398 74.6398 78.3398C72.2745 78.3398 70.5161 77.185 69.2642 74.8085C67.6765 71.7952 69.5836 66.4668 71.6026 60.8253C72.6505 58.0499 73.5578 55.2234 74.3211 52.3566C76.137 44.9448 76.3667 36.2355 76.5512 29.237C76.5949 27.5817 76.6359 26.0183 76.6963 24.6468C76.9361 18.1202 79.5874 11.9143 84.1376 7.22921C86.3779 4.93366 89.056 3.11103 92.0135 1.86926C94.9709 0.627491 98.1474 -0.00815976 101.355 -4.53516e-05C104.542 -0.00770668 107.698 0.62979 110.633 1.87406C113.568 3.11833 116.22 4.94362 118.431 7.24004C122.834 11.7741 125.529 17.953 126.017 24.637C126.488 31.0824 127.612 43.3798 129.855 53.3128C130.616 56.6822 131.467 59.6584 132.218 62.2843C133.787 67.7677 134.921 71.7292 133.797 74.4264C133.187 75.8901 131.634 78.3398 128.07 78.3398ZM119.163 72.4314C121.542 72.4314 122.724 73.8251 123.867 75.1735C124.961 76.4642 125.995 77.6833 128.07 77.6833C131.254 77.6833 132.645 75.484 133.19 74.175C134.226 71.6899 133.119 67.8208 131.587 62.4659C130.832 59.8314 129.978 56.846 129.214 53.4585C126.961 43.4825 125.833 31.1494 125.361 24.6859C124.361 10.987 114.04 0.656444 101.355 0.656444C88.4835 0.656444 77.939 11.2072 77.3495 24.6764C77.2898 26.0419 77.2484 27.6027 77.2047 29.2551C77.0295 35.9138 76.7888 45.0331 74.9563 52.5135C74.1878 55.4026 73.2739 58.251 72.218 61.0478C70.2486 66.5486 68.3891 71.7447 69.8425 74.5032C70.9701 76.6431 72.5384 77.6836 74.6372 77.6836C76.7114 77.6836 77.745 76.4645 78.8387 75.1738C79.9817 73.8254 81.163 72.4317 83.5412 72.4317C85.9193 72.4317 87.1013 73.8254 88.2443 75.1738C89.3386 76.4645 90.3719 77.6836 92.4458 77.6836C94.5196 77.6836 95.5539 76.4642 96.6473 75.1738C97.7899 73.8254 98.9719 72.4317 101.35 72.4317C103.728 72.4317 104.91 73.8257 106.053 75.1738C107.148 76.4645 108.181 77.6836 110.255 77.6836C112.329 77.6836 113.363 76.4642 114.456 75.1738C115.603 73.8251 116.784 72.4314 119.163 72.4314Z" fill="black"/>
<path d="M92.2111 26.2319C93.7007 26.2319 94.9083 25.0243 94.9083 23.5347C94.9083 22.0451 93.7007 20.8375 92.2111 20.8375C90.7215 20.8375 89.5139 22.0451 89.5139 23.5347C89.5139 25.0243 90.7215 26.2319 92.2111 26.2319Z" fill="black"/>
<path d="M110.707 26.2319C112.197 26.2319 113.404 25.0243 113.404 23.5347C113.404 22.0451 112.197 20.8375 110.707 20.8375C109.217 20.8375 108.01 22.0451 108.01 23.5347C108.01 25.0243 109.217 26.2319 110.707 26.2319Z" fill="black"/>
<path d="M106.289 30.8146C106.445 30.8142 106.599 30.8485 106.739 30.915C106.88 30.9815 107.004 31.0786 107.103 31.1991C107.201 31.3197 107.272 31.4607 107.309 31.6118C107.346 31.763 107.349 31.9206 107.318 32.0731C106.74 34.7778 104.336 36.4775 101.459 36.4775C98.582 36.4775 96.1786 34.7778 95.6002 32.0731C95.5689 31.9206 95.5719 31.763 95.609 31.6118C95.6462 31.4606 95.7167 31.3196 95.8152 31.1991C95.9137 31.0786 96.0379 30.9815 96.1787 30.915C96.3194 30.8485 96.4733 30.8142 96.6289 30.8146H106.289Z" fill="white"/>
<path d="M101.46 36.8057C98.3605 36.8057 95.877 34.9314 95.2806 32.1417C95.238 31.9429 95.2406 31.7371 95.2883 31.5394C95.3359 31.3418 95.4272 31.1573 95.5556 30.9997C95.6849 30.8391 95.8485 30.7096 96.0345 30.6208C96.2206 30.5319 96.4242 30.486 96.6303 30.4863H106.291C106.497 30.4861 106.7 30.5321 106.886 30.621C107.072 30.7098 107.236 30.8392 107.365 30.9997C107.494 31.1573 107.585 31.3418 107.632 31.5394C107.68 31.7371 107.683 31.9429 107.64 32.1417C107.043 34.9314 104.559 36.8057 101.46 36.8057ZM96.629 31.1428C96.5207 31.1427 96.4137 31.1669 96.316 31.2136C96.2183 31.2603 96.1323 31.3283 96.0644 31.4126C95.998 31.4942 95.9506 31.5896 95.9259 31.6918C95.9011 31.7941 95.8995 31.9006 95.9213 32.0035C96.4511 34.4827 98.6766 36.1482 101.459 36.1482C104.242 36.1482 106.467 34.4827 106.997 32.0035C107.019 31.9005 107.017 31.794 106.992 31.6917C106.967 31.5895 106.92 31.4941 106.853 31.4126C106.785 31.3283 106.699 31.2602 106.602 31.2135C106.504 31.1668 106.397 31.1427 106.289 31.1428H96.629Z" fill="black"/>
</g>
<defs>
<clipPath id="clip0_2293_1630">
<rect width="200" height="169" fill="white"/>
</clipPath>
</defs>
</svg>

<svg xmlns="http://www.w3.org/2000/svg" width="200" height="169" fill="none"><g clip-path="url(#a)"><path fill="#000" d="M199.083 115.115c-5.462-27.546-37.465-49.56-43.708-78.267C144.031.328 106.638-5.446 82.339 10.415c-38.501 25.132 2.572 31.368-72.917 90.828-18.64 14.682-12.7 79.491 45.94 64.619 31.557-8.004 41.15-9.128 55.345-10.446 35.778-3.323 97.546 5.938 88.376-40.301Z" opacity=".1"/><path fill="#fff" d="m162.809 161.984-122.533.101c-4.864.004-8.153-3.278-8.157-8.14l-.074-76.722 138.833-.115.074 76.721c.002 4.862-3.281 8.151-8.143 8.155Z"/><path fill="#000" d="M40.263 162.413c-2.47 0-4.587-.809-6.122-2.341-1.535-1.533-2.35-3.653-2.353-6.128l-.074-77.05h.328l139.161-.115.075 77.049c.004 5.071-3.4 8.481-8.469 8.485l-122.533.101-.013-.001ZM32.371 77.55l.074 76.393c.002 2.298.748 4.256 2.16 5.664 1.41 1.409 3.365 2.15 5.658 2.15h.01l122.533-.101c4.678-.004 7.818-3.151 7.812-7.828l-.074-76.393-138.173.115Z"/><path fill="#000" d="m170.962 76.565-66.207-50.242a5.534 5.534 0 0 0-6.677.005L31.955 76.681a.63.63 0 0 0 .105 1.066l62.845 30.639a13.74 13.74 0 0 0 11.861.239l.197-.091 63.894-30.9a.63.63 0 0 0 .106-1.068h-.001Z"/><path fill="#fff" d="M129.534 53.386c2.346 10.39 5.559 17.076 3.959 20.915-.841 2.019-2.566 3.71-5.423 3.71-4.453 0-4.453-5.253-8.907-5.253s-4.453 5.252-8.906 5.252-4.452-5.252-8.905-5.252c-4.453 0-4.453 5.252-8.905 5.252-4.453 0-4.453-5.252-8.906-5.252-4.452 0-4.451 5.252-8.904 5.252-2.643 0-4.137-1.557-5.085-3.355-2.277-4.323 3.03-13.834 5.085-22.22 2.271-9.269 2.08-20.811 2.384-27.774C77.61 11.236 87.916.328 101.355.328s23.355 10.93 24.334 24.334c.528 7.226 1.697 19.212 3.845 28.724Z"/><path fill="#000" d="M128.07 78.34c-2.379 0-3.561-1.394-4.704-2.742-1.095-1.291-2.128-2.51-4.203-2.51s-3.108 1.219-4.202 2.51c-1.143 1.348-2.325 2.742-4.703 2.742s-3.56-1.394-4.703-2.742c-1.094-1.291-2.128-2.51-4.202-2.51-2.073 0-3.107 1.219-4.201 2.51-1.143 1.348-2.325 2.742-4.703 2.742-2.379 0-3.56-1.394-4.703-2.742-1.095-1.291-2.128-2.51-4.202-2.51-2.073 0-3.107 1.219-4.201 2.51-1.143 1.348-2.325 2.742-4.703 2.742-2.365 0-4.124-1.155-5.376-3.532-1.587-3.013.32-8.341 2.339-13.983a88.274 88.274 0 0 0 2.718-8.468c1.816-7.412 2.046-16.121 2.23-23.12.044-1.655.085-3.219.145-4.59a26.39 26.39 0 0 1 7.442-17.418A23.973 23.973 0 0 1 101.355 0a23.625 23.625 0 0 1 17.076 7.24c4.403 4.534 7.098 10.713 7.586 17.397.471 6.445 1.595 18.743 3.838 28.676.761 3.37 1.612 6.345 2.363 8.971 1.569 5.484 2.703 9.445 1.579 12.142-.61 1.464-2.163 3.914-5.727 3.914Zm-8.907-5.909c2.379 0 3.561 1.394 4.704 2.743 1.094 1.29 2.128 2.51 4.203 2.51 3.184 0 4.575-2.2 5.12-3.509 1.036-2.485-.071-6.354-1.603-11.71-.755-2.634-1.609-5.619-2.373-9.007-2.253-9.975-3.381-22.309-3.853-28.772-1-13.699-11.321-24.03-24.006-24.03-12.871 0-23.416 10.551-24.005 24.02-.06 1.366-.102 2.927-.145 4.58-.175 6.658-.416 15.777-2.249 23.258a88.766 88.766 0 0 1-2.738 8.534c-1.97 5.5-3.829 10.697-2.376 13.455 1.128 2.14 2.696 3.18 4.795 3.18 2.074 0 3.108-1.219 4.202-2.51 1.143-1.348 2.324-2.741 4.702-2.741s3.56 1.393 4.703 2.742c1.095 1.29 2.128 2.51 4.202 2.51s3.108-1.22 4.201-2.51c1.143-1.349 2.325-2.742 4.703-2.742s3.56 1.394 4.703 2.742c1.095 1.29 2.128 2.51 4.202 2.51s3.108-1.22 4.201-2.51c1.147-1.349 2.328-2.743 4.707-2.743Z"/><path fill="#000" d="M92.211 26.232a2.697 2.697 0 1 0 0-5.395 2.697 2.697 0 0 0 0 5.395ZM110.707 26.232a2.697 2.697 0 1 0 0-5.394 2.697 2.697 0 0 0 0 5.394Z"/><path fill="#fff" d="M106.289 30.815a1.043 1.043 0 0 1 .814.384 1.053 1.053 0 0 1 .215.874c-.578 2.705-2.982 4.404-5.859 4.404s-5.28-1.7-5.859-4.404a1.05 1.05 0 0 1 .579-1.158c.14-.066.294-.1.45-.1h9.66Z"/><path fill="#000" d="M101.46 36.806c-3.1 0-5.583-1.875-6.18-4.664A1.356 1.356 0 0 1 95.557 31a1.376 1.376 0 0 1 1.074-.514h9.661a1.376 1.376 0 0 1 1.074.514c.129.157.22.342.267.54.048.197.051.403.008.602-.597 2.79-3.081 4.664-6.18 4.664Zm-4.831-5.663a.724.724 0 0 0-.703.549.704.704 0 0 0-.005.312c.53 2.479 2.756 4.144 5.538 4.144 2.783 0 5.008-1.665 5.538-4.145a.698.698 0 0 0-.144-.59.73.73 0 0 0-.564-.27h-9.66Z"/></g><defs><clipPath id="a"><path fill="#fff" d="M0 0h200v169H0z"/></clipPath></defs></svg>
